packages/appstore/src/assets/svgs/wallet/webmoney-dark.svg

<svg width="128" height="80" viewBox="0 0 128 80" fill="none" xmlns="http://www.w3.org/2000/svg">
<path d="M108.187 25.3596C110.409 25.3631 112.601 25.869 114.6 26.8397C114.91 26.9897 115.21 27.1497 115.52 27.3197L114.16 28.5297L112.16 26.4297L108.72 29.4297L106.67 27.2197L100.22 32.9997L104.33 37.4997L102.71 38.9097L106.76 43.4097L105.16 44.8197L111 51.2197L114.43 48.0797L117.43 51.4497C116.814 51.9209 116.166 52.3486 115.49 52.7297C110.142 55.8216 103.431 55.2322 98.7036 51.2556C93.9765 47.2791 92.2469 40.7675 94.3776 34.9694C96.5083 29.1713 102.043 25.3291 108.22 25.3596H108.187Z" fill="white"/>
<path d="M105.45 39.0798L108.96 35.9398L112.11 39.4198L108.61 42.5598L105.45 39.0798Z" fill="white"/>
<path d="M111.45 41.9597L107.94 45.0897L111.1 48.5697L114.61 45.4397L111.45 41.9597Z" fill="white"/>
<path d="M102.94 33.1297L106.45 29.9897L109.6 33.4797L106.09 36.6097L102.94 33.1297Z" fill="white"/>
<path d="M112.01 29.0897L109.38 31.4397L111.74 34.0497L114.38 31.6997L112.01 29.0897Z" fill="white"/>
<path d="M114.05 42.2097L116.68 39.8597L119.05 42.4697L116.42 44.8197L114.05 42.2097Z" fill="white"/>
<path d="M119 45.1298L116.36 47.4798L118.73 50.0998L121.36 47.7498L119 45.1298Z" fill="white"/>
<path d="M117.42 35.3998L119.18 33.8298L120.76 35.5698L119 37.1398L117.42 35.3998Z" fill="white"/>
<path d="M116.94 28.6598L115.18 30.2198L116.76 31.9698L118.52 30.3998L116.94 28.6598Z" fill="white"/>
<path d="M119.67 40.5698L121.42 38.9998L123 40.7398L121.25 42.3098L119.67 40.5698Z" fill="white"/>
<path d="M114.43 34.3397L111.8 36.6897L114.17 39.2997L116.8 36.9497L114.43 34.3397Z" fill="white"/>
<path d="M11.88 37.4797H11.77L9.54 45.8097H7.73L5 33.9697H6.88L8.77 42.8097H8.89L11.08 33.9697H12.57L14.91 42.8097H15.03L16.75 33.9697H18.72L15.99 45.8097H14.17L11.88 37.4797Z" fill="white"/>
<path fill-rule="evenodd" clip-rule="evenodd" d="M26.1799 45.2698V43.9998C25.3879 44.5423 24.4591 44.8508 23.4999 44.8898C21.7699 44.8898 20.9399 43.9998 20.9399 41.9998H26.3999V41.3698C26.3999 38.6398 25.0999 37.2898 22.9999 37.2898C20.4799 37.2898 19.1799 39.0298 19.1799 41.6698C19.1799 44.3098 20.3499 46.0398 23.1799 46.0398C24.2305 46.0534 25.2658 45.7877 26.1799 45.2698ZM24.8499 40.8298H20.9999C21.1599 39.1598 22.0899 38.3798 22.9999 38.3798C23.9099 38.3798 24.7699 39.0798 24.8499 40.8298Z" fill="white"/>
<path fill-rule="evenodd" clip-rule="evenodd" d="M29.69 37.8798C30.3994 37.4915 31.1915 37.2789 32 37.2598C34.09 37.2598 35.22 38.6998 35.22 41.3698C35.22 44.4898 33.7 46.0098 31.22 46.0098C30.1001 45.9718 29.0016 45.6921 28 45.1898V33.5298L29.75 33.1198L29.69 37.8798ZM29.69 44.5798C30.1844 44.7681 30.7112 44.8564 31.24 44.8397C32.49 44.8397 33.43 44.0798 33.43 41.3698C33.43 39.2498 32.66 38.5598 31.53 38.5598C30.8786 38.5756 30.2432 38.7655 29.69 39.1098V44.5798Z" fill="white"/>
<path d="M42.94 43.3097H42.8601L39.09 33.9697H37.05V45.8097H38.5601V37.4297H38.7201L42.1501 45.8097H43.23L46.66 37.2297H46.8101V45.8097H48.6301V33.9697H46.5401L42.94 43.3097Z" fill="white"/>
<path fill-rule="evenodd" clip-rule="evenodd" d="M50.48 41.6398C50.48 38.7098 52.1 37.2598 54.32 37.2598C56.54 37.2598 58.16 38.7098 58.16 41.6398C58.16 44.5698 56.63 45.9998 54.32 45.9998C52.01 45.9998 50.48 44.4898 50.48 41.6398ZM56.39 41.6398C56.39 39.3798 55.46 38.4298 54.32 38.4298C53.18 38.4298 52.25 39.4298 52.25 41.6398C52.25 43.8498 53.13 44.8398 54.32 44.8398C55.51 44.8398 56.39 43.9298 56.39 41.6398Z" fill="white"/>
<path d="M64.05 37.2598C62.5351 37.2838 61.0541 37.7119 59.76 38.4998V45.8098H61.51V39.1998C62.1378 38.8441 62.8395 38.6387 63.56 38.5998C64.42 38.5998 65.08 38.8298 65.08 40.1498V45.8098H66.83V39.7598C66.83 38.0398 66.05 37.2598 64.05 37.2598Z" fill="white"/>
<path fill-rule="evenodd" clip-rule="evenodd" d="M75.3601 43.9998V45.2698C74.446 45.7877 73.4107 46.0534 72.3601 46.0398C69.5301 46.0398 68.3601 44.3098 68.3601 41.6698C68.3601 39.0298 69.6601 37.2898 72.1801 37.2898C74.2901 37.2898 75.5801 38.6398 75.5801 41.3698V41.9998H70.1301C70.1301 43.9998 70.9501 44.8898 72.6801 44.8898C73.6393 44.8508 74.5681 44.5423 75.3601 43.9998ZM70.1601 40.8298H74.0001C73.9201 39.0798 73.0601 38.3798 72.1501 38.3798C71.2401 38.3798 70.3501 39.1598 70.1601 40.8298Z" fill="white"/>
<path d="M84 37.5398H82.16L82.17 37.4998L80.25 43.6498H80.15L78 37.4998H76.21L79.45 45.8598C79.04 47.0898 78.34 47.9998 77.19 47.9998V49.3998C79.13 49.3998 80.15 48.1998 81 45.8998L84 37.5398Z" fill="white"/>
</svg>

<svg width="128" height="80" fill="none" xmlns="http://www.w3.org/2000/svg"><path d="M108.187 25.36c2.222.003 4.414.509 6.413 1.48.31.15.61.31.92.48l-1.36 1.21-2-2.1-3.44 3-2.05-2.21-6.45 5.78 4.11 4.5-1.62 1.41 4.05 4.5-1.6 1.41 5.84 6.4 3.43-3.14 3 3.37c-.616.47-1.264.899-1.94 1.28a14.67 14.67 0 1 1-7.27-27.37h-.033z" fill="#fff"/><path d="m105.45 39.08 3.51-3.14 3.15 3.48-3.5 3.14-3.16-3.48zM111.45 41.96l-3.51 3.13 3.16 3.48 3.51-3.13-3.16-3.48zM102.94 33.13l3.51-3.14 3.15 3.49-3.51 3.13-3.15-3.48zM112.01 29.09l-2.63 2.35 2.36 2.61 2.64-2.35-2.37-2.61zM114.05 42.21l2.63-2.35 2.37 2.61-2.63 2.35-2.37-2.61zM119 45.13l-2.64 2.35 2.37 2.62 2.63-2.35-2.36-2.62zM117.42 35.4l1.76-1.57 1.58 1.74-1.76 1.57-1.58-1.74zM116.94 28.66l-1.76 1.56 1.58 1.75 1.76-1.57-1.58-1.74zM119.67 40.57l1.75-1.57 1.58 1.74-1.75 1.57-1.58-1.74zM114.43 34.34l-2.63 2.35 2.37 2.61 2.63-2.35-2.37-2.61zM11.88 37.48h-.11l-2.23 8.33H7.73L5 33.97h1.88l1.89 8.84h.12l2.19-8.84h1.49l2.34 8.84h.12l1.72-8.84h1.97l-2.73 11.84h-1.82l-2.29-8.33z" fill="#fff"/><path fill-rule="evenodd" clip-rule="evenodd" d="M26.18 45.27V44a5.11 5.11 0 0 1-2.68.89c-1.73 0-2.56-.89-2.56-2.89h5.46v-.63c0-2.73-1.3-4.08-3.4-4.08-2.52 0-3.82 1.74-3.82 4.38 0 2.64 1.17 4.37 4 4.37a5.93 5.93 0 0 0 3-.77zm-1.33-4.44H21c.16-1.67 1.09-2.45 2-2.45.91 0 1.77.7 1.85 2.45zM29.69 37.88a5.06 5.06 0 0 1 2.31-.62c2.09 0 3.22 1.44 3.22 4.11 0 3.12-1.52 4.64-4 4.64a7.77 7.77 0 0 1-3.22-.82V33.53l1.75-.41-.06 4.76zm0 6.7a4 4 0 0 0 1.55.26c1.25 0 2.19-.76 2.19-3.47 0-2.12-.77-2.81-1.9-2.81a3.65 3.65 0 0 0-1.84.55v5.47z" fill="#fff"/><path d="M42.94 43.31h-.08l-3.77-9.34h-2.04v11.84h1.51v-8.38h.16l3.43 8.38h1.08l3.43-8.58h.15v8.58h1.82V33.97h-2.09l-3.6 9.34z" fill="#fff"/><path fill-rule="evenodd" clip-rule="evenodd" d="M50.48 41.64c0-2.93 1.62-4.38 3.84-4.38 2.22 0 3.84 1.45 3.84 4.38 0 2.93-1.53 4.36-3.84 4.36-2.31 0-3.84-1.51-3.84-4.36zm5.91 0c0-2.26-.93-3.21-2.07-3.21-1.14 0-2.07 1-2.07 3.21s.88 3.2 2.07 3.2 2.07-.91 2.07-3.2z" fill="#fff"/><path d="M64.05 37.26a8.509 8.509 0 0 0-4.29 1.24v7.31h1.75V39.2a4.67 4.67 0 0 1 2.05-.6c.86 0 1.52.23 1.52 1.55v5.66h1.75v-6.05c0-1.72-.78-2.5-2.78-2.5z" fill="#fff"/><path fill-rule="evenodd" clip-rule="evenodd" d="M75.36 44v1.27a5.93 5.93 0 0 1-3 .77c-2.83 0-4-1.73-4-4.37s1.3-4.38 3.82-4.38c2.11 0 3.4 1.35 3.4 4.08V42h-5.45c0 2 .82 2.89 2.55 2.89a5.11 5.11 0 0 0 2.68-.89zm-5.2-3.17H74c-.08-1.75-.94-2.45-1.85-2.45-.91 0-1.8.78-1.99 2.45z" fill="#fff"/><path d="M84 37.54h-1.84l.01-.04-1.92 6.15h-.1L78 37.5h-1.79l3.24 8.36c-.41 1.23-1.11 2.14-2.26 2.14v1.4c1.94 0 2.96-1.2 3.81-3.5l3-8.36z" fill="#fff"/></svg>
